app/client/src/assets/icons/blueprintjs/16px/sim-card.svg

<svg xmlns="http://www.w3.org/2000/svg" xml:space="preserve" viewBox="0 0 16 16"><path fill-rule="evenodd" d="m13.71 4.29-4-4A.997.997 0 0 0 9 0H3c-.55 0-1 .45-1 1v14c0 .55.45 1 1 1h10c.55 0 1-.45 1-1V5c0-.28-.11-.53-.29-.71zM7 6h2v2H7V6zM4 6h2v2H4V6zm2 8H4v-2h2v2zm3 0H7v-2h2v2zm3 0h-2v-2h2v2zm0-3H4V9h8v2zm0-3h-2V6h2v2z" clip-rule="evenodd"/></svg>

<?xml version="1.0" encoding="utf-8"?>
<!-- Generator: Adobe Illustrator 18.0.0, SVG Export Plug-In . SVG Version: 6.00 Build 0)  -->
<svg version="1.1" id="Layer_1" xmlns="http://www.w3.org/2000/svg" xmlns:xlink="http://www.w3.org/1999/xlink" x="0px" y="0px"
	 viewBox="0 0 16 16" enable-background="new 0 0 16 16" xml:space="preserve">
<g id="sim_card">
	<g>
		<path fill-rule="evenodd" clip-rule="evenodd" d="M13.71,4.29l-4-4C9.53,0.11,9.28,0,9,0H3C2.45,0,2,0.45,2,1v14
			c0,0.55,0.45,1,1,1h10c0.55,0,1-0.45,1-1V5C14,4.72,13.89,4.47,13.71,4.29z M7,6h2v2H7V6z M4,6h2v2H4V6z M6,14H4v-2h2V14z M9,14H7
			v-2h2V14z M12,14h-2v-2h2V14z M12,11H4V9h8V11z M12,8h-2V6h2V8z"/>
	</g>
</g>
</svg>
